icons/bhi_checkbox-add.svg

<svg xmlns="http://www.w3.org/2000/svg" viewBox="0 0 512 512" enable-background="new 0 0 512 512"><path fill="#010101" d="M455.1 0h-398.2c-31.4 0-56.9 25.5-56.9 56.9v398.2c0 31.5 25.5 56.9 56.9 56.9h398.2c31.4 0 56.9-25.5 56.9-56.9v-398.2c0-31.4-25.4-56.9-56.9-56.9zm-42.6 288h-124.5v128h-64v-128h-124.4v-64h124.4v-128h64v128h124.5v64z"/></svg>

<?xml version="1.0" encoding="utf-8"?>
<!-- Generator: Adobe Illustrator 19.2.0, SVG Export Plug-In . SVG Version: 6.00 Build 0)  -->
<svg version="1.1" id="Layer_1" xmlns="http://www.w3.org/2000/svg" xmlns:xlink="http://www.w3.org/1999/xlink" x="0px" y="0px"
	 viewBox="0 0 512 512" enable-background="new 0 0 512 512" xml:space="preserve">
<path fill="#010101" d="M455.1,0H56.9C25.5,0,0,25.5,0,56.9v398.2C0,486.6,25.5,512,56.9,512h398.2c31.4,0,56.9-25.5,56.9-56.9V56.9
	C512,25.5,486.6,0,455.1,0z M412.5,288H288v128h-64V288H99.6v-64H224V96h64v128h124.5V288z"/>
</svg>
